X:569
T:Reel 569
M:4/4
K:Ador
L:1/8
GF|E2A,C B,G,G,B,|CB,CB, CDEF|G2GE DG,B,G,|CB,A,C E2GA|B2BA GEDF|ECA,B, CA,B,A,|G,2GE ABAF|GEDB, B,A,A,2|EAAG AGAB|c2Bc AGED|EDEF G2GA|BcBA GFED|EAAB ABAG|EAAB cBAF|GBAG AcBA|GEDB, CA,A,|
